!!!COM: Raharisoa, Norbert
!!!CDT: 1873-1964
!!!OTL: National Anthem, Madagascar
!!!ENC: Davis, Matthew J.
!!Vocal Line Only
**kern
*clefG2
*k[b-e-]
*B-:
*M4/4
=1-
2r
4r
=2
4b-
8.b-
16b-
8.b-
16f
8.b-
16cc
=3
4..dd
8cc
4b-
4f
=4
4g
8.g
16g
8a
16b-
16a
8.g
16a
=5
[2b-
8b-]
8r
4f
=6
4dd
8.dd
16dd
8.dd
16cc
8.dd
16ee-
=7
4..ff
16ee-
8.dd
16ff
8.een
16dd
=8
4cc
8.a
16b-
8.cc
16cc
8.b-
16g
=9
[2f
8f]
8r
!Chorus
4f
==!|:10
4..cc
16cc
8.cc
16bn
8.cc
16dd
=11
2b-
4f
4f
=12
4..e-
16ee-
8.ee-
16dd
8.ee-
16ff
=13
[2dd
8dd]
8r
4b-
=14
4.gg
8ff
8ee-
8cc
8dd
8ee-
=15
4.ff
8ee-
4dd
4dd
=16
8cc
8bn
8cc
8dd
4ee-
8.g
16a
=17
!First Ending
[2b-
8b-]
8r
4f
==:|!18
!Second Ending
2.b-
4r
==|!
*-
